hero/solid/bars-3-center-left.svg

<svg width="24" height="24" viewBox="0 0 24 24" fill="none" xmlns="http://www.w3.org/2000/svg">
<path fill-rule="evenodd" clip-rule="evenodd" d="M3 6.75C3 6.33579 3.33579 6 3.75 6H20.25C20.6642 6 21 6.33579 21 6.75C21 7.16421 20.6642 7.5 20.25 7.5H3.75C3.33579 7.5 3 7.16421 3 6.75ZM3 12C3 11.5858 3.33579 11.25 3.75 11.25H12C12.4142 11.25 12.75 11.5858 12.75 12C12.75 12.4142 12.4142 12.75 12 12.75H3.75C3.33579 12.75 3 12.4142 3 12ZM3 17.25C3 16.8358 3.33579 16.5 3.75 16.5H20.25C20.6642 16.5 21 16.8358 21 17.25C21 17.6642 20.6642 18 20.25 18H3.75C3.33579 18 3 17.6642 3 17.25Z" fill="#0F172A"/>
</svg>

<svg viewBox="0 0 24 24" xmlns="http://www.w3.org/2000/svg"><path fill-rule="evenodd" d="M3 6.75v0c0-.42.33-.75.75-.75h16.5v0c.41 0 .75.33.75.75 0 .41-.34.75-.75.75H3.75v0c-.42 0-.75-.34-.75-.75ZM3 12v0c0-.42.33-.75.75-.75H12v0c.41 0 .75.33.75.75 0 .41-.34.75-.75.75H3.75v0c-.42 0-.75-.34-.75-.75Zm0 5.25v0c0-.42.33-.75.75-.75h16.5v0c.41 0 .75.33.75.75 0 .41-.34.75-.75.75H3.75v0c-.42 0-.75-.34-.75-.75Z"/></svg>
